X: 5212
T: Trip to Timber Ridge
P: the Whirlwind
C: Andy Imbrie
R: reel
B: RSCDS 52-12
Z: 2019 John Chambers <jc:trillian.mit.edu>
M: C|
L: 1/8
K: A
AB |:\
"A"cAAe "C#/A7"AAcA | "D"dFFE "Bm"FGAF |\
"E"GEEA "G#/E7"EEBE | "A"ABcA "E7"BGFE |
"A"cAAe "C#/A7"AAcA | "D"dFFE "Bm"FGAF |\
"E"GEAE "E7"BEGE | "A"Ac"E7"BG "A"A2 :|
cd |\
"A"eAAa "C#/A7"AAeA | "D"fddc "Bm"Bcdf | "E"geea "E7"eebe | "A"agab "E7"afed |
"A"eAAa "C#/A7"AAeA | "D"fddc "Bm"Bcdf | "E"geae "G#/E7"bege | "A"ag"E7"ab "A"e2 ||
"E7"cd |\
"A"eAAa "C#/A7"AAeA | "D"fddc "Bm"Bcdf | "E"geea "G#/E7"eebe | "A"agab "E7"afed |
"A"eA A/A/A "C#/A7"GA=GA | "D"Fddc "Bm"Bcda | "E"geae "G#/E7"bege | "A"ag"E7"ab "A"e2 |]
